X: 32997
T: Pretty Maggie Morrissey
R: hornpipe
M: 4/4
K: Gmajor
Bc|dBGB cAFA|GBAF GABc|dgfg efge|dBGB A2 Bc|
dBGB cAFA|G3F GABc|dgfg ecAF|G2 GF G2||
Bc|dgfg efge|dgfg efge|dgfg efge|dBGB A2 Bc|
dBGB cAFA|GBAF GABc|dgfg ecAF|G2 GF G2||

